assets/img/icons/duotone-icons/Media/Media-library#2.svg

<?xml version="1.0" encoding="UTF-8"?>
<svg width="24px" height="24px" viewBox="0 0 24 24" version="1.1" xmlns="http://www.w3.org/2000/svg" xmlns:xlink="http://www.w3.org/1999/xlink">
    <!-- Generator: Sketch 52.2 (67145) - http://www.bohemiancoding.com/sketch -->
    <title>Stockholm-icons / Media / Media-library#2</title>
    <desc>Created with Sketch.</desc>
    <g id="Stockholm-icons-/-Media-/-Media-library#2" stroke="none" stroke-width="1" fill="none" fill-rule="evenodd">
        <rect id="bound" x="0" y="0" width="24" height="24"></rect>
        <path d="M3.5,22 L20.5,22 C21.3284271,22 22,21.3284271 22,20.5 L22,9.5 C22,8.67157288 21.3284271,8 20.5,8 L10,8 L7.43933983,5.43933983 C7.15803526,5.15803526 6.77650439,5 6.37867966,5 L3.5,5 C2.67157288,5 2,5.67157288 2,6.5 L2,20.5 C2,21.3284271 2.67157288,22 3.5,22 Z" id="Combined-Shape" fill="#335EEA" opacity="0.3"></path>
        <path d="M10.8333333,20 C9.82081129,20 9,19.3159906 9,18.4722222 C9,17.6284539 9.82081129,16.9444444 10.8333333,16.9444444 C11.0476105,16.9444444 11.2533018,16.9750785 11.4444444,17.0313779 L11.4444444,12.7916011 C11.4444444,12.4782408 11.6398662,12.2012404 11.9268804,12.1077729 L15.4407693,11.0331119 C15.8834716,10.8889438 16.3333333,11.2336005 16.3333333,11.7169402 L16.3333333,12.7916011 C16.3333333,13.1498215 15.9979332,13.3786009 15.7222222,13.4444444 C15.3255297,13.53918 14.3070112,13.7428837 12.6666667,14.0555556 L12.6666667,18.5035214 C12.6666667,18.5583862 12.6622174,18.6091837 12.6535404,18.6559869 C12.5446237,19.4131089 11.771224,20 10.8333333,20 Z" id="Combined-Shape" fill="#335EEA"></path>
    </g>
</svg>

<svg width="24" height="24" viewBox="0 0 24 24" xmlns="http://www.w3.org/2000/svg"><g fill="none" fill-rule="evenodd"><path d="M0 0h24v24H0z"/><path d="M3.5 22h17a1.5 1.5 0 001.5-1.5v-11A1.5 1.5 0 0020.5 8H10L7.44 5.44A1.5 1.5 0 006.378 5H3.5A1.5 1.5 0 002 6.5v14A1.5 1.5 0 003.5 22z" fill="#335EEA" opacity=".3"/><path d="M10.833 20C9.821 20 9 19.316 9 18.472s.82-1.528 1.833-1.528c.215 0 .42.031.611.087v-4.24c0-.313.196-.59.483-.683l3.514-1.075c.442-.144.892.2.892.684v1.075c0 .358-.335.587-.61.652-.397.095-1.416.299-3.056.612v4.448a.837.837 0 01-.013.152c-.11.757-.883 1.344-1.82 1.344z" fill="#335EEA"/></g></svg>
